public/flags/TM.svg

<svg fill="none" height="53" viewBox="0 0 61 53" width="61" xmlns="http://www.w3.org/2000/svg" xmlns:xlink="http://www.w3.org/1999/xlink"><mask id="a" height="43" maskUnits="userSpaceOnUse" width="59" x="1" y="3"><rect fill="#fff" height="42.5" rx="4.24286" width="59" x="1" y="3"/></mask><mask id="b" height="7" maskUnits="userSpaceOnUse" width="9" x="9" y="5"><path clip-rule="evenodd" d="m13.643 11.5c2.3275 0 4.2143-1.2685 4.2143-2.83335 0-1.56481-1.8868-2.83334-4.2143-2.83334s-4.21429 1.26853-4.21429 2.83334c0 1.56485 1.88679 2.83335 4.21429 2.83335z" fill="#fff" fill-rule="evenodd"/></mask><mask id="c" height="6" maskUnits="userSpaceOnUse" width="9" x="9" y="37"><path clip-rule="evenodd" d="m13.643 42.6666c2.3275 0 4.2143-1.2685 4.2143-2.8333s-1.8868-2.8334-4.2143-2.8334-4.21429 1.2686-4.21429 2.8334 1.88679 2.8333 4.21429 2.8333z" fill="#fff" fill-rule="evenodd"/></mask><mask id="d" height="7" maskUnits="userSpaceOnUse" width="9" x="9" y="22"><path clip-rule="evenodd" d="m13.643 28.5c2.3275 0 4.2143-1.2685 4.2143-2.8333s-1.8868-2.8333-4.2143-2.8333-4.21429 1.2685-4.21429 2.8333 1.88679 2.8333 4.21429 2.8333z" fill="#fff" fill-rule="evenodd"/></mask><mask height="4" maskUnits="userSpaceOnUse" width="9" x="9" y="31"><path clip-rule="evenodd" d="m13.643 34.1666c2.3275 0 4.2143-.6342 4.2143-1.4166s-1.8868-1.4167-4.2143-1.4167-4.21429.6343-4.21429 1.4167 1.88679 1.4166 4.21429 1.4166z" fill="#fff" fill-rule="evenodd"/></mask><mask id="e" height="6" maskUnits="userSpaceOnUse" width="9" x="9" y="14"><path clip-rule="evenodd" d="m13.643 19.9999c2.3275 0 4.2143-1.2685 4.2143-2.8333s-1.8868-2.8333-4.2143-2.8333-4.21429 1.2685-4.21429 2.8333 1.88679 2.8333 4.21429 2.8333z" fill="#fff" fill-rule="evenodd"/></mask><rect fill="#fff" height="42.5" rx="4.24286" width="59" x="1" y="3"/><g mask="url(#a)"><path clip-rule="evenodd" d="m1 45.5h59v-42.5h-59z" fill="#30c375" fill-rule="evenodd"/><path d="m9.42871 3h8.42857v42.5h-8.42857z" fill="#de414f"/><path clip-rule="evenodd" d="m13.643 11.5c2.3275 0 4.2143-1.2685 4.2143-2.83335 0-1.56481-1.8868-2.83334-4.2143-2.83334s-4.21429 1.26853-4.21429 2.83334c0 1.56485 1.88679 2.83335 4.21429 2.83335z" fill="#fff" fill-rule="evenodd"/><g mask="url(#b)"><path clip-rule="evenodd" d="m13.643 10.0833c.7759 0 1.4048-.63423 1.4048-1.41663 0-.78241-.6289-1.41667-1.4048-1.41667-.7758 0-1.4047.63426-1.4047 1.41667 0 .7824.6289 1.41663 1.4047 1.41663z" fill="#dd404f" fill-rule="evenodd"/><g fill="#fbaf29"><path d="m9.42871 5.83331h4.21429v2.83333h-4.21429z"/><path d="m13.6431 8.66663h4.21429v2.83333h-4.21429z"/></g></g><path clip-rule="evenodd" d="m13.643 42.6666c2.3275 0 4.2143-1.2685 4.2143-2.8333s-1.8868-2.8334-4.2143-2.8334-4.21429 1.2686-4.21429 2.8334 1.88679 2.8333 4.21429 2.8333z" fill="#fff" fill-rule="evenodd"/><g mask="url(#c)"><path clip-rule="evenodd" d="m13.643 41.25c.7759 0 1.4048-.6343 1.4048-1.4167s-.6289-1.4167-1.4048-1.4167c-.7758 0-1.4047.6343-1.4047 1.4167s.6289 1.4167 1.4047 1.4167z" fill="#dd404f" fill-rule="evenodd"/><g fill="#fbaf29"><path d="m9.42871 36.9999h4.21429v2.83333h-4.21429z"/><path d="m13.6431 39.8333h4.21429v2.83333h-4.21429z"/></g></g><path clip-rule="evenodd" d="m13.643 28.5c2.3275 0 4.2143-1.2685 4.2143-2.8333s-1.8868-2.8333-4.2143-2.8333-4.21429 1.2685-4.21429 2.8333 1.88679 2.8333 4.21429 2.8333z" fill="#28ae67" fill-rule="evenodd"/><g mask="url(#d)"><path clip-rule="evenodd" d="m13.643 27.0833c1.5517 0 2.8095-.6342 2.8095-1.4166s-1.2578-1.4167-2.8095-1.4167c-1.5516 0-2.8095.6343-2.8095 1.4167s1.2579 1.4166 2.8095 1.4166z" fill="#dd404f" fill-rule="evenodd"/></g><path clip-rule="evenodd" d="m13.643 34.1666c2.3275 0 4.2143-.6342 4.2143-1.4166s-1.8868-1.4167-4.2143-1.4167-4.21429.6343-4.21429 1.4167 1.88679 1.4166 4.21429 1.4166z" fill="#28ae67" fill-rule="evenodd"/><path clip-rule="evenodd" d="m13.643 19.9999c2.3275 0 4.2143-1.2685 4.2143-2.8333s-1.8868-2.8333-4.2143-2.8333-4.21429 1.2685-4.21429 2.8333 1.88679 2.8333 4.21429 2.8333z" fill="#fbaf29" fill-rule="evenodd"/><g mask="url(#e)"><path clip-rule="evenodd" d="m13.643 18.5833c.7759 0 1.4048-.6343 1.4048-1.4167s-.6289-1.4167-1.4048-1.4167c-.7758 0-1.4047.6343-1.4047 1.4167s.6289 1.4167 1.4047 1.4167z" fill="#dd404f" fill-rule="evenodd"/><g fill="#28ae67"><path d="m9.42871 14.3333h2.80952v5.66667h-2.80952z"/><path d="m15.0479 14.3333h2.80952v5.66667h-2.80952z"/></g></g><g clip-rule="evenodd" fill="#fff" fill-rule="evenodd"><path d="m32.2332 12.006c-.4987.5994-.4211 1.493.1732 1.9959s1.4804.4247 1.9791-.1746c.4987-.5994.4211-1.493-.1732-1.9959s-1.4804-.4247-1.9791.1746zm-3.6399 5.4921c-.5943-.503-1.4804-.4248-1.979.1746-.4987.5993-.4212 1.4929.1731 1.9958s1.4804.4248 1.9791-.1746.4211-1.4929-.1732-1.9958zm-2.8095-2.8334c-.5943-.5029-1.4803-.4247-1.979.1746-.4987.5994-.4212 1.493.1731 1.9959s1.4804.4247 1.9791-.1746c.4987-.5994.4211-1.4929-.1732-1.9959zm5.619-5.6666c-.5943-.50292-1.4804-.42475-1.9791.17461-.4986.59936-.4211 1.49289.1732 1.99589.5943.5029 1.4804.4247 1.9791-.1747.4987-.5993.4211-1.49288-.1732-1.9958zm-1.4046 4.25c-.5943-.5029-1.4804-.4248-1.9791.1746-.4987.5993-.4211 1.4929.1732 1.9958.5943.503 1.4804.4248 1.9791-.1746.4986-.5993.4211-1.4929-.1732-1.9958z"/><path d="m37.8244 23.0824c-3.3462 3.3746-8.7716 3.3746-12.1178 0-.3242-.327-.6171-.6737-.8785-1.0362 3.3506 2.457 8.0683 2.1617 11.0904-.8859 3.022-3.0476 3.3148-7.8053.8784-11.18435.3595.26365.7033.55895 1.0275.88595 3.3463 3.3746 3.3463 8.8459 0 12.2205z"/></g></g></svg>

<svg width="61" height="53" viewBox="0 0 61 53" fill="none" xmlns="http://www.w3.org/2000/svg">
<rect x="1" y="3" width="59" height="42.5" rx="4.24286" fill="white"/>
<mask id="mask0" mask-type="alpha" maskUnits="userSpaceOnUse" x="1" y="3" width="59" height="43">
<rect x="1" y="3" width="59" height="42.5" rx="4.24286" fill="white"/>
</mask>
<g mask="url(#mask0)">
<path fill-rule="evenodd" clip-rule="evenodd" d="M1 45.5H60V3H1V45.5Z" fill="#30C375"/>
<rect x="9.42871" y="3" width="8.42857" height="42.5" fill="#DE414F"/>
<path fill-rule="evenodd" clip-rule="evenodd" d="M13.643 11.5C15.9705 11.5 17.8573 10.2315 17.8573 8.66665C17.8573 7.10184 15.9705 5.83331 13.643 5.83331C11.3155 5.83331 9.42871 7.10184 9.42871 8.66665C9.42871 10.2315 11.3155 11.5 13.643 11.5Z" fill="white"/>
<mask id="mask1" mask-type="alpha" maskUnits="userSpaceOnUse" x="9" y="5" width="9" height="7">
<path fill-rule="evenodd" clip-rule="evenodd" d="M13.643 11.5C15.9705 11.5 17.8573 10.2315 17.8573 8.66665C17.8573 7.10184 15.9705 5.83331 13.643 5.83331C11.3155 5.83331 9.42871 7.10184 9.42871 8.66665C9.42871 10.2315 11.3155 11.5 13.643 11.5Z" fill="white"/>
</mask>
<g mask="url(#mask1)">
<path fill-rule="evenodd" clip-rule="evenodd" d="M13.643 10.0833C14.4189 10.0833 15.0478 9.44907 15.0478 8.66667C15.0478 7.88426 14.4189 7.25 13.643 7.25C12.8672 7.25 12.2383 7.88426 12.2383 8.66667C12.2383 9.44907 12.8672 10.0833 13.643 10.0833Z" fill="#DD404F"/>
<rect x="9.42871" y="5.83331" width="4.21429" height="2.83333" fill="#FBAF29"/>
<rect x="13.6431" y="8.66663" width="4.21429" height="2.83333" fill="#FBAF29"/>
</g>
<path fill-rule="evenodd" clip-rule="evenodd" d="M13.643 42.6666C15.9705 42.6666 17.8573 41.3981 17.8573 39.8333C17.8573 38.2685 15.9705 36.9999 13.643 36.9999C11.3155 36.9999 9.42871 38.2685 9.42871 39.8333C9.42871 41.3981 11.3155 42.6666 13.643 42.6666Z" fill="white"/>
<mask id="mask2" mask-type="alpha" maskUnits="userSpaceOnUse" x="9" y="37" width="9" height="6">
<path fill-rule="evenodd" clip-rule="evenodd" d="M13.643 42.6666C15.9705 42.6666 17.8573 41.3981 17.8573 39.8333C17.8573 38.2685 15.9705 36.9999 13.643 36.9999C11.3155 36.9999 9.42871 38.2685 9.42871 39.8333C9.42871 41.3981 11.3155 42.6666 13.643 42.6666Z" fill="white"/>
</mask>
<g mask="url(#mask2)">
<path fill-rule="evenodd" clip-rule="evenodd" d="M13.643 41.25C14.4189 41.25 15.0478 40.6157 15.0478 39.8333C15.0478 39.0509 14.4189 38.4166 13.643 38.4166C12.8672 38.4166 12.2383 39.0509 12.2383 39.8333C12.2383 40.6157 12.8672 41.25 13.643 41.25Z" fill="#DD404F"/>
<rect x="9.42871" y="36.9999" width="4.21429" height="2.83333" fill="#FBAF29"/>
<rect x="13.6431" y="39.8333" width="4.21429" height="2.83333" fill="#FBAF29"/>
</g>
<path fill-rule="evenodd" clip-rule="evenodd" d="M13.643 28.5C15.9705 28.5 17.8573 27.2315 17.8573 25.6667C17.8573 24.1019 15.9705 22.8334 13.643 22.8334C11.3155 22.8334 9.42871 24.1019 9.42871 25.6667C9.42871 27.2315 11.3155 28.5 13.643 28.5Z" fill="#28AE67"/>
<mask id="mask3" mask-type="alpha" maskUnits="userSpaceOnUse" x="9" y="22" width="9" height="7">
<path fill-rule="evenodd" clip-rule="evenodd" d="M13.643 28.5C15.9705 28.5 17.8573 27.2315 17.8573 25.6667C17.8573 24.1019 15.9705 22.8334 13.643 22.8334C11.3155 22.8334 9.42871 24.1019 9.42871 25.6667C9.42871 27.2315 11.3155 28.5 13.643 28.5Z" fill="white"/>
</mask>
<g mask="url(#mask3)">
<path fill-rule="evenodd" clip-rule="evenodd" d="M13.643 27.0833C15.1947 27.0833 16.4525 26.4491 16.4525 25.6667C16.4525 24.8843 15.1947 24.25 13.643 24.25C12.0914 24.25 10.8335 24.8843 10.8335 25.6667C10.8335 26.4491 12.0914 27.0833 13.643 27.0833Z" fill="#DD404F"/>
</g>
<path fill-rule="evenodd" clip-rule="evenodd" d="M13.643 34.1666C15.9705 34.1666 17.8573 33.5324 17.8573 32.75C17.8573 31.9676 15.9705 31.3333 13.643 31.3333C11.3155 31.3333 9.42871 31.9676 9.42871 32.75C9.42871 33.5324 11.3155 34.1666 13.643 34.1666Z" fill="#28AE67"/>
<mask id="mask4" mask-type="alpha" maskUnits="userSpaceOnUse" x="9" y="31" width="9" height="4">
<path fill-rule="evenodd" clip-rule="evenodd" d="M13.643 34.1666C15.9705 34.1666 17.8573 33.5324 17.8573 32.75C17.8573 31.9676 15.9705 31.3333 13.643 31.3333C11.3155 31.3333 9.42871 31.9676 9.42871 32.75C9.42871 33.5324 11.3155 34.1666 13.643 34.1666Z" fill="white"/>
</mask>
<g mask="url(#mask4)">
</g>
<path fill-rule="evenodd" clip-rule="evenodd" d="M13.643 19.9999C15.9705 19.9999 17.8573 18.7314 17.8573 17.1666C17.8573 15.6018 15.9705 14.3333 13.643 14.3333C11.3155 14.3333 9.42871 15.6018 9.42871 17.1666C9.42871 18.7314 11.3155 19.9999 13.643 19.9999Z" fill="#FBAF29"/>
<mask id="mask5" mask-type="alpha" maskUnits="userSpaceOnUse" x="9" y="14" width="9" height="6">
<path fill-rule="evenodd" clip-rule="evenodd" d="M13.643 19.9999C15.9705 19.9999 17.8573 18.7314 17.8573 17.1666C17.8573 15.6018 15.9705 14.3333 13.643 14.3333C11.3155 14.3333 9.42871 15.6018 9.42871 17.1666C9.42871 18.7314 11.3155 19.9999 13.643 19.9999Z" fill="white"/>
</mask>
<g mask="url(#mask5)">
<path fill-rule="evenodd" clip-rule="evenodd" d="M13.643 18.5833C14.4189 18.5833 15.0478 17.949 15.0478 17.1666C15.0478 16.3842 14.4189 15.7499 13.643 15.7499C12.8672 15.7499 12.2383 16.3842 12.2383 17.1666C12.2383 17.949 12.8672 18.5833 13.643 18.5833Z" fill="#DD404F"/>
<rect x="9.42871" y="14.3333" width="2.80952" height="5.66667" fill="#28AE67"/>
<rect x="15.0479" y="14.3333" width="2.80952" height="5.66667" fill="#28AE67"/>
</g>
<path fill-rule="evenodd" clip-rule="evenodd" d="M32.2332 12.006C31.7345 12.6054 31.8121 13.499 32.4064 14.0019C33.0007 14.5048 33.8868 14.4266 34.3855 13.8273C34.8842 13.2279 34.8066 12.3343 34.2123 11.8314C33.618 11.3285 32.7319 11.4067 32.2332 12.006ZM28.5933 17.4981C27.999 16.9951 27.1129 17.0733 26.6143 17.6727C26.1156 18.272 26.1931 19.1656 26.7874 19.6685C27.3817 20.1714 28.2678 20.0933 28.7665 19.4939C29.2652 18.8945 29.1876 18.001 28.5933 17.4981V17.4981ZM25.7838 14.6647C25.1895 14.1618 24.3035 14.24 23.8048 14.8393C23.3061 15.4387 23.3836 16.3323 23.9779 16.8352C24.5722 17.3381 25.4583 17.2599 25.957 16.6606C26.4557 16.0612 26.3781 15.1677 25.7838 14.6647V14.6647ZM31.4028 8.9981C30.8085 8.49518 29.9224 8.57335 29.4237 9.17271C28.9251 9.77207 29.0026 10.6656 29.5969 11.1686C30.1912 11.6715 31.0773 11.5933 31.576 10.9939C32.0747 10.3946 31.9971 9.50102 31.4028 8.9981V8.9981ZM29.9982 13.2481C29.4039 12.7452 28.5178 12.8233 28.0191 13.4227C27.5204 14.022 27.598 14.9156 28.1923 15.4185C28.7866 15.9215 29.6727 15.8433 30.1714 15.2439C30.67 14.6446 30.5925 13.751 29.9982 13.2481V13.2481Z" fill="white"/>
<path fill-rule="evenodd" clip-rule="evenodd" d="M37.8244 23.0824C34.4782 26.457 29.0528 26.457 25.7066 23.0824C25.3824 22.7554 25.0895 22.4087 24.8281 22.0462C28.1787 24.5032 32.8964 24.2079 35.9185 21.1603C38.9405 18.1127 39.2333 13.355 36.7969 9.97595C37.1564 10.2396 37.5002 10.5349 37.8244 10.8619C41.1707 14.2365 41.1707 19.7078 37.8244 23.0824Z" fill="white"/>
</g>
</svg>
